assets/illustrations/multisize/16/vsdx.svg

<?xml version="1.0" encoding="utf-8"?>
<!-- Generator: Adobe Illustrator 21.1.0, SVG Export Plug-In . SVG Version: 6.00 Build 0)  -->
<svg version="1.1" xmlns="http://www.w3.org/2000/svg" xmlns:xlink="http://www.w3.org/1999/xlink" x="0px" y="0px"
	 viewBox="0 0 16 16" enable-background="new 0 0 16 16" xml:space="preserve">
<g id="TEMPLATE" display="none">
	<g display="inline">
		<path fill="#D0D0D0" d="M16,0v16H0V0H16 M17-1h-1H0h-1v1v16v1h1h16h1v-1V0V-1L17-1z"/>
	</g>
</g>
<g id="ICONS">
	<g>
		<polygon fill="#FFFFFF" points="14,15 4,15 4,1 12,1 14,2.9998 		"/>
		<path fill="#949494" d="M12,0H3v16h12V3L12,0z M12,1.5L13.5,3H12V1.5z M14,15H4V1h7v3h3V15z"/>
	</g>
	<g>
		<polygon fill="#2B579A" points="1,5 8,4 8,14 1,13 		"/>
		<rect x="3" y="7" fill="#FFFFFF" width="1" height="3"/>
		<rect x="5" y="7" fill="#FFFFFF" width="1" height="3"/>
		<rect x="4" y="10" fill="#FFFFFF" width="1" height="2"/>
		<rect x="3" y="10" fill="#B0C0D8" width="1" height="1"/>
		<rect x="5" y="10" fill="#B0C0D8" width="1" height="1"/>
		<polygon fill="#3955A3" points="1,5 8,4 8,14 1,13 		"/>
		<rect x="3" y="7" fill="#FFFFFF" width="1" height="3"/>
		<rect x="5" y="7" fill="#FFFFFF" width="1" height="3"/>
		<rect x="4" y="10" fill="#FFFFFF" width="1" height="2"/>
		<rect x="3" y="10" fill="#B0C0D8" width="1" height="1"/>
		<rect x="5" y="10" fill="#B0C0D8" width="1" height="1"/>
	</g>
	<path fill="#C8C8C8" d="M11,10V8V7h-1H8v1h2v2H9v4h4v-4H11z M12,13h-2v-2h2V13z"/>
</g>
</svg>

<svg id="c66fb905-4c57-4dda-a105-dc4c62ffe349" data-name="ICONS" xmlns="http://www.w3.org/2000/svg" viewBox="0 0 16 16"><title>FileTypeIcons_Master_All_NEW</title><polygon points="14 15 4 15 4 1 12 1 14 3 14 15" fill="#fff"/><path d="M12,0H3V16H15V3Zm0,1.5L13.5,3H12ZM14,15H4V1h7V4h3Z" fill="#949494"/><polygon points="1 5 8 4 8 14 1 13 1 5" fill="#2b579a"/><rect x="3" y="7" width="1" height="3" fill="#fff"/><rect x="5" y="7" width="1" height="3" fill="#fff"/><rect x="4" y="10" width="1" height="2" fill="#fff"/><rect x="3" y="10" width="1" height="1" fill="#b0c0d8"/><rect x="5" y="10" width="1" height="1" fill="#b0c0d8"/><polygon points="1 5 8 4 8 14 1 13 1 5" fill="#3955a3"/><rect x="3" y="7" width="1" height="3" fill="#fff"/><rect x="5" y="7" width="1" height="3" fill="#fff"/><rect x="4" y="10" width="1" height="2" fill="#fff"/><rect x="3" y="10" width="1" height="1" fill="#b0c0d8"/><rect x="5" y="10" width="1" height="1" fill="#b0c0d8"/><path d="M11,10V7H8V8h2v2H9v4h4V10Zm1,3H10V11h2Z" fill="#c8c8c8"/></svg>
